Numix-GalliumOS/22/status/renamed-pidgin.svg

<?xml version="1.0" encoding="UTF-8" standalone="no"?>
<svg
   xmlns:dc="http://purl.org/dc/elements/1.1/"
   xmlns:cc="http://creativecommons.org/ns#"
   xmlns:rdf="http://www.w3.org/1999/02/22-rdf-syntax-ns#"
   xmlns:svg="http://www.w3.org/2000/svg"
   xmlns="http://www.w3.org/2000/svg"
   xmlns:sodipodi="http://sodipodi.sourceforge.net/DTD/sodipodi-0.dtd"
   xmlns:inkscape="http://www.inkscape.org/namespaces/inkscape"
   width="22"
   viewBox="0 0 22 22"
   height="22"
   id="svg2"
   version="1.1"
   inkscape:version="0.91 r"
   sodipodi:docname="renamed-pidgin.svg">
  <metadata
     id="metadata12">
    <rdf:RDF>
      <cc:Work
         rdf:about="">
        <dc:format>image/svg+xml</dc:format>
        <dc:type
           rdf:resource="http://purl.org/dc/dcmitype/StillImage" />
        <dc:title />
      </cc:Work>
    </rdf:RDF>
  </metadata>
  <sodipodi:namedview
     pagecolor="#ffffff"
     bordercolor="#666666"
     borderopacity="1"
     objecttolerance="10"
     gridtolerance="10"
     guidetolerance="10"
     inkscape:pageopacity="0"
     inkscape:pageshadow="2"
     inkscape:window-width="1280"
     inkscape:window-height="998"
     id="namedview10"
     showgrid="true"
     inkscape:zoom="16.281885"
     inkscape:cx="-5.2779292"
     inkscape:cy="10.059336"
     inkscape:window-x="0"
     inkscape:window-y="0"
     inkscape:window-maximized="1"
     inkscape:current-layer="svg2">
    <inkscape:grid
       type="xygrid"
       id="grid2990" />
  </sodipodi:namedview>
  <defs
     id="defs4" />
  <path
     style="fill:#ececec;fill-rule:evenodd;fill-opacity:1"
     d="M 11 3 C 6.5683741 3 3 6.5683741 3 11 C 3 15.431626 6.5683741 19 11 19 C 15.431626 19 19 15.431626 19 11 C 19 6.5683741 15.431626 3 11 3 z M 7.46875 6.4375 C 8.0363834 6.3844186 8.6134492 6.8455581 8.90625 7.5625 C 8.9240387 7.6035865 8.95384 7.643512 8.96875 7.6875 C 9.045986 7.9153955 9.0880544 8.1541705 9.09375 8.375 C 9.0963332 8.4845511 9.0765599 8.584178 9.0625 8.6875 C 9.0350416 8.896303 8.9947839 9.0822371 8.90625 9.25 C 8.8170547 9.4156039 8.6741915 9.5531842 8.53125 9.65625 C 8.4659304 9.7013824 8.3876797 9.7525693 8.3125 9.78125 C 8.2289669 9.8131175 8.1481894 9.8356475 8.0625 9.84375 C 7.8774666 9.8610531 7.7114743 9.8307866 7.53125 9.75 C 7.4479085 9.7153194 7.3913372 9.6786987 7.3125 9.625 C 7.1462438 9.5132831 7.0064138 9.3707016 6.875 9.1875 C 6.816691 9.1072035 6.7363684 9.0300083 6.6875 8.9375 C 6.683282 8.9293665 6.6916353 8.9144697 6.6875 8.90625 C 6.6354969 8.8049911 6.601118 8.7076977 6.5625 8.59375 C 6.54546 8.5434788 6.5436334 8.4875385 6.53125 8.4375 C 6.5250025 8.4238608 6.5060211 8.4201014 6.5 8.40625 C 6.2857318 7.5588306 6.5655 6.7372905 7.1875 6.5 C 7.2710331 6.4681325 7.3825303 6.4455627 7.46875 6.4375 z M 13.71875 6.8125 C 14.225389 6.7369679 14.763425 7.108085 15.03125 7.71875 C 15.107771 7.8932257 15.171717 8.0773445 15.1875 8.25 C 15.197807 8.3867724 15.180804 8.531018 15.15625 8.65625 C 15.138754 8.747991 15.097936 8.8249329 15.0625 8.90625 C 15.058782 8.9148881 15.066413 8.9290015 15.0625 8.9375 C 15.027543 9.0126725 14.987395 9.0936319 14.9375 9.15625 C 14.919368 9.1785956 14.895019 9.1983357 14.875 9.21875 C 14.846388 9.2479047 14.813569 9.2563109 14.78125 9.28125 C 14.722934 9.3272445 14.664214 9.3763018 14.59375 9.40625 C 14.465745 9.4606541 14.324331 9.4765036 14.1875 9.46875 C 14.177723 9.4679167 14.166032 9.4698738 14.15625 9.46875 C 14.018497 9.4564425 13.88212 9.4110669 13.75 9.34375 C 13.743175 9.3401159 13.725538 9.3475197 13.71875 9.34375 C 13.578265 9.2678059 13.460578 9.1609601 13.34375 9.03125 C 13.226369 8.9020995 13.139021 8.7369757 13.0625 8.5625 C 12.984804 8.3852677 12.92155 8.2080101 12.90625 8.03125 C 12.89635 7.9168758 12.891518 7.7934787 12.90625 7.6875 C 12.90867 7.7087966 12.934275 7.7286458 12.9375 7.75 C 12.981799 7.3594808 13.169399 7.0155099 13.5 6.875 C 13.568926 6.8457055 13.646373 6.8232903 13.71875 6.8125 z M 14.0625 7.375 C 13.747109 7.375 13.46875 7.6218998 13.46875 7.9375 C 13.46875 8.2531002 13.747109 8.53125 14.0625 8.53125 C 14.377891 8.53125 14.625 8.2531002 14.625 7.9375 C 14.625 7.6218998 14.377891 7.375 14.0625 7.375 z M 8 7.5625 C 7.9011754 7.5570624 7.7864949 7.5894041 7.6875 7.625 C 7.2915205 7.7673836 7.1076164 8.1977705 7.25 8.59375 C 7.3923836 8.9897295 7.8227705 9.2048836 8.21875 9.0625 C 8.6147295 8.9201164 8.7986336 8.4584795 8.65625 8.0625 C 8.5494623 7.7655154 8.2964739 7.5788128 8 7.5625 z M 14.125 7.90625 C 14.203848 7.90625 14.28125 7.9836 14.28125 8.0625 C 14.28125 8.1414 14.203848 8.1875 14.125 8.1875 C 14.046152 8.1875 14 8.1414 14 8.0625 C 14 7.9836 14.046152 7.90625 14.125 7.90625 z M 8.0625 8.25 C 8.1614949 8.2144041 8.2456541 8.2447551 8.28125 8.34375 C 8.3168459 8.4427449 8.2864949 8.5581541 8.1875 8.59375 C 8.0885051 8.6293459 7.9730959 8.5677449 7.9375 8.46875 C 7.9019041 8.3697551 7.9635051 8.2855959 8.0625 8.25 z M 10.9375 9.84375 C 10.96858 9.8428209 10.976822 9.8726098 11 9.875 C 11.018821 9.8727522 11.038245 9.843001 11.0625 9.84375 C 11.238623 9.84901 11.56735 9.9631967 12.125 10.46875 C 12.868537 11.142822 12.90625 11.75 12.90625 11.75 C 12.787146 11.809796 12.653122 11.914196 12.53125 12.03125 C 12.198249 13.203433 11.913565 13.65625 11 13.65625 C 10.020897 13.65625 9.560333 13.14275 9.4375 12 C 9.3279847 11.901092 9.2058349 11.806491 9.09375 11.75 C 9.09375 11.75 9.1314629 11.142826 9.875 10.46875 C 10.432653 9.9631932 10.76138 9.8490151 10.9375 9.84375 z "
     id="rect16" />
</svg>

<svg xmlns="http://www.w3.org/2000/svg" viewBox="0 0 22 22">
 <path d="m 11 3 c -4.432 0 -8 3.568 -8 8 c 0 4.432 3.568 8 8 8 c 4.432 0 8 -3.568 8 -8 c 0 -4.432 -3.568 -8 -8 -8 z m -3.531 3.438 c 0.568 -0.053 1.145 0.408 1.438 1.125 c 0.018 0.041 0.048 0.081 0.063 0.125 c 0.077 0.228 0.119 0.467 0.125 0.688 c 0.003 0.11 -0.017 0.209 -0.031 0.313 c -0.027 0.209 -0.068 0.395 -0.156 0.563 c -0.089 0.166 -0.232 0.303 -0.375 0.406 c -0.065 0.045 -0.144 0.096 -0.219 0.125 c -0.084 0.032 -0.164 0.054 -0.25 0.063 c -0.185 0.017 -0.351 -0.013 -0.531 -0.094 c -0.083 -0.035 -0.14 -0.071 -0.219 -0.125 c -0.166 -0.112 -0.306 -0.254 -0.438 -0.438 c -0.058 -0.08 -0.139 -0.157 -0.188 -0.25 c -0.004 -0.008 0.004 -0.023 0 -0.031 c -0.052 -0.101 -0.086 -0.199 -0.125 -0.313 c -0.017 -0.05 -0.019 -0.106 -0.031 -0.156 c -0.006 -0.014 -0.025 -0.017 -0.031 -0.031 c -0.214 -0.847 0.066 -1.669 0.688 -1.906 c 0.084 -0.032 0.195 -0.054 0.281 -0.063 z m 6.25 0.375 c 0.507 -0.076 1.045 0.296 1.313 0.906 c 0.077 0.174 0.14 0.359 0.156 0.531 c 0.01 0.137 -0.007 0.281 -0.031 0.406 c -0.017 0.092 -0.058 0.169 -0.094 0.25 c -0.004 0.009 0.004 0.023 0 0.031 c -0.035 0.075 -0.075 0.156 -0.125 0.219 c -0.018 0.022 -0.042 0.042 -0.063 0.063 c -0.029 0.029 -0.061 0.038 -0.094 0.063 c -0.058 0.046 -0.117 0.095 -0.188 0.125 c -0.128 0.054 -0.269 0.07 -0.406 0.063 c -0.01 -0.001 -0.021 0.001 -0.031 0 c -0.138 -0.012 -0.274 -0.058 -0.406 -0.125 c -0.007 -0.004 -0.024 0.004 -0.031 0 c -0.14 -0.076 -0.258 -0.183 -0.375 -0.313 c -0.117 -0.129 -0.205 -0.294 -0.281 -0.469 c -0.078 -0.177 -0.141 -0.354 -0.156 -0.531 c -0.01 -0.114 -0.015 -0.238 0 -0.344 c 0.002 0.021 0.028 0.041 0.031 0.063 c 0.044 -0.391 0.232 -0.734 0.563 -0.875 c 0.069 -0.029 0.146 -0.052 0.219 -0.063 z m 0.344 0.563 c -0.315 0 -0.594 0.247 -0.594 0.563 c 0 0.316 0.278 0.594 0.594 0.594 c 0.315 0 0.563 -0.278 0.563 -0.594 c 0 -0.316 -0.247 -0.563 -0.563 -0.563 z m -6.06 0.188 c -0.099 -0.005 -0.214 0.027 -0.313 0.063 c -0.396 0.142 -0.58 0.573 -0.438 0.969 c 0.142 0.396 0.573 0.611 0.969 0.469 c 0.396 -0.142 0.58 -0.604 0.438 -1 c -0.107 -0.297 -0.36 -0.484 -0.656 -0.5 z m 6.125 0.344 c 0.079 0 0.156 0.077 0.156 0.156 c 0 0.079 -0.077 0.125 -0.156 0.125 c -0.079 0 -0.125 -0.046 -0.125 -0.125 c 0 -0.079 0.046 -0.156 0.125 -0.156 z m -6.06 0.344 c 0.099 -0.036 0.183 -0.005 0.219 0.094 c 0.036 0.099 0.005 0.214 -0.094 0.25 c -0.099 0.036 -0.214 -0.026 -0.25 -0.125 c -0.036 -0.099 0.026 -0.183 0.125 -0.219 z m 2.875 1.594 c 0.031 -0.001 0.039 0.029 0.063 0.031 c 0.019 -0.002 0.038 -0.032 0.063 -0.031 c 0.176 0.005 0.505 0.119 1.063 0.625 c 0.744 0.674 0.781 1.281 0.781 1.281 c -0.119 0.06 -0.253 0.164 -0.375 0.281 c -0.333 1.172 -0.618 1.625 -1.531 1.625 c -0.979 0 -1.44 -0.514 -1.563 -1.656 c -0.11 -0.099 -0.232 -0.194 -0.344 -0.25 c 0 0 0.038 -0.607 0.781 -1.281 c 0.558 -0.506 0.886 -0.62 1.063 -0.625 z" style="fill:#ececec;fill-opacity:1;fill-rule:evenodd"/>
</svg>
